svgs/apkmirror_installer.svg

<svg width="24" height="24" viewBox="0 0 24 24" fill="none" xmlns="http://www.w3.org/2000/svg">
<path d="M16.0213 20.8285H21.9261L14.9515 3.17154H9.04844L2.07388 20.8285H7.97699L11.9991 10.6446L14.5612 4.16187L12.3287 11.4744L12.6059 12.1775H12.1124L10.3734 17.8778H14.8552L16.0213 20.8285Z" fill="#FFF1C0"/>
</svg>

<svg xmlns="http://www.w3.org/2000/svg" viewBox="0 0 24 24"><path d="M16.021 20.829h5.905L14.952 3.171H9.048L2.074 20.828h5.903l4.022-10.183 2.562-6.483-2.232 7.312.277.704h-.494l-1.739 5.7h4.482l1.166 2.95"/></svg>
